dist/img/svg/telegram_fill.svg

<svg width="52" height="52" viewBox="0 0 52 52" fill="none" xmlns="http://www.w3.org/2000/svg"><path d="M26 0C11.648 0 0 11.648 0 26s11.648 26 26 26 26-11.648 26-26S40.352 0 26 0zm12.064 17.68c-.39 4.108-2.08 14.092-2.938 18.694-.364 1.95-1.092 2.6-1.768 2.678-1.508.13-2.652-.988-4.108-1.95-2.288-1.508-3.588-2.444-5.798-3.9-2.574-1.69-.91-2.626.572-4.134.39-.39 7.046-6.448 7.176-6.994a.519.519 0 00-.13-.468c-.156-.13-.364-.078-.546-.052-.234.052-3.874 2.47-10.972 7.254-1.04.702-1.976 1.066-2.808 1.04-.936-.026-2.704-.52-4.03-.962-1.638-.52-2.912-.806-2.808-1.716.052-.468.702-.936 1.924-1.43 7.592-3.302 12.636-5.486 15.158-6.526 7.228-3.016 8.71-3.536 9.698-3.536.208 0 .702.052 1.014.312.26.208.338.494.364.702-.026.156.026.624 0 .988z" fill="currentColor"/></svg>

<svg width="52" height="52" viewBox="0 0 52 52" fill="none" xmlns="http://www.w3.org/2000/svg">
<path d="M26 0C11.648 0 0 11.648 0 26C0 40.352 11.648 52 26 52C40.352 52 52 40.352 52 26C52 11.648 40.352 0 26 0ZM38.064 17.68C37.674 21.788 35.984 31.772 35.126 36.374C34.762 38.324 34.034 38.974 33.358 39.052C31.85 39.182 30.706 38.064 29.25 37.102C26.962 35.594 25.662 34.658 23.452 33.202C20.878 31.512 22.542 30.576 24.024 29.068C24.414 28.678 31.07 22.62 31.2 22.074C31.2181 21.9913 31.2157 21.9054 31.193 21.8239C31.1703 21.7423 31.1281 21.6675 31.07 21.606C30.914 21.476 30.706 21.528 30.524 21.554C30.29 21.606 26.65 24.024 19.552 28.808C18.512 29.51 17.576 29.874 16.744 29.848C15.808 29.822 14.04 29.328 12.714 28.886C11.076 28.366 9.802 28.08 9.906 27.17C9.958 26.702 10.608 26.234 11.83 25.74C19.422 22.438 24.466 20.254 26.988 19.214C34.216 16.198 35.698 15.678 36.686 15.678C36.894 15.678 37.388 15.73 37.7 15.99C37.96 16.198 38.038 16.484 38.064 16.692C38.038 16.848 38.09 17.316 38.064 17.68Z" fill="currentColor"/>
</svg>
